src/img/icons/i-check.svg

<svg width="24" height="24" viewBox="0 0 24 24" fill="none" xmlns="http://www.w3.org/2000/svg">
<g clip-path="url(#clip0)">
<path d="M9.19003 20.9656C8.96094 21.196 8.64837 21.3246 8.32369 21.3246C7.99901 21.3246 7.68645 21.196 7.45735 20.9656L0.538518 14.0456C-0.179506 13.3276 -0.179506 12.1633 0.538518 11.4466L1.40486 10.58C2.12311 9.86203 3.28608 9.86203 4.00411 10.58L8.32369 14.8999L19.9958 3.22748C20.7141 2.50946 21.8782 2.50946 22.5951 3.22748L23.4614 4.09405C24.1795 4.81207 24.1795 5.97617 23.4614 6.69307L9.19003 20.9656Z" fill="#3F3474"/>
</g>
<defs>
<clipPath id="clip0">
<rect width="24" height="24" fill="white"/>
</clipPath>
</defs>
</svg>

<svg xmlns="http://www.w3.org/2000/svg" width="24" height="24" fill="none"  xmlns:v="https://vecta.io/nano"><g clip-path="url(#A)"><path d="M9.19 20.966a1.22 1.22 0 0 1-1.733 0l-6.919-6.92a1.84 1.84 0 0 1 0-2.599l.866-.867a1.84 1.84 0 0 1 2.599 0l4.32 4.32L19.996 3.227a1.84 1.84 0 0 1 2.599 0l.866.867c.718.718.718 1.882 0 2.599L9.19 20.966z" fill="#3f3474"/></g><defs><clipPath id="A"><path fill="#fff" d="M0 0h24v24H0z"/></clipPath></defs></svg>
